!!!!SEGMENT: Ano2006-Dies_est_laetitiae.krn
!!!id: Ano2006
!!!jrpid:
!!!AGN: Motet
!!!SCT: Edwards, Gasch, Tröster (2021)
!!!voices: 4
!!!COM: Anonymous
!!!OTL: Dies est laetitiae
**kern	**text	**kern	**text	**kern	**text	**kern	**text
*part4	*part4	*part3	*part3	*part2	*part2	*part1	*part1
*staff4	*staff4	*staff3	*staff3	*staff2	*staff2	*staff1	*staff1
*I"Bassus	*	*I"Tenor	*	*I"Altus	*	*I"Superius	*
*I'B	*	*I'T	*	*I'A	*	*I'S	*
*clefF4	*	*clefGv2	*	*clefGv2	*	*clefG2	*
*	*	*	*	*	*	*	*
*k[]	*	*k[]	*	*k[]	*	*k[]	*
*	*	*	*	*	*	*	*
*M2/1	*	*M2/1	*	*M2/1	*	*M2/1	*
*met(C|)	*	*met(C|)	*	*met(C|)	*	*met(C|)	*
!!section: Prima pars: Dies est laetitiae
!!!OMD: Prima pars: Dies est laetitiae
=1	=1	=1	=1	=1	=1	=1	=1
!	!	!LO:TX:a:t=Canon&colon; tenor/altus at the fourth	!	!	!	!	!
1C	Di-	0r	.	0r	.	1g	Di-
1C	-es	.	.	.	.	2g	-es
.	.	.	.	.	.	[2a	est
=2	=2	=2	=2	=2	=2	=2	=2
1D	est	0r	.	0r	.	2a]	.
.	.	.	.	.	.	1b	lae-
1E	lae-	.	.	.	.	.	.
.	.	.	.	.	.	[2cc	-ti-
=3	=3	=3	=3	=3	=3	=3	=3
1F	-ti-	0r	.	0r	.	4cc]	.
.	.	.	.	.	.	4b	.
.	.	.	.	.	.	1a	.
1D	-ti-	.	.	.	.	.	.
.	.	.	.	.	.	4g	.
.	.	.	.	.	.	4f	.
=4	=4	=4	=4	=4	=4	=4	=4
0C	-ae	1G	Di-	1r	.	2e	.
.	.	.	.	.	.	2.g	-ti-
.	.	1G	-es	1c	Di-	.	.
.	.	.	.	.	.	4f	.
.	.	.	.	.	.	4e	.
.	.	.	.	.	.	4d	.
=5	=5	=5	=5	=5	=5	=5	=5
0r	.	1A	est	1c	-es	2c	-ae,
.	.	.	.	.	.	2cc	lae-
.	.	1B	lae-	1d	est	4b	.
.	.	.	.	.	.	4a	.
.	.	.	.	.	.	2dd	.
=6	=6	=6	=6	=6	=6	=6	=6
0r	.	1c	-ti-	1e	lae-	1g	-ti-
.	.	1A	-ti-	1f	-ti-	2a	.
.	.	.	.	.	.	[2cc	.
=7	=7	=7	=7	=7	=7	=7	=7
2r	.	0G	-ae	1d	-ti-	2cc]	.
2GG	in	.	.	.	.	2b	-ti-
1C	or-	.	.	[1c	-ae	1cc	-ae
=8	=8	=8	=8	=8	=8	=8	=8
1AA	-tu	1A	in	1c]	.	2r	.
.	.	.	.	.	.	2cc	in
1BB	.	1G	or-	1d	in	2b	or-
.	.	.	.	.	.	[2g	.
=9	=9	=9	=9	=9	=9	=9	=9
1C	re-	1E	-tu	1c	or-	4g]	.
.	.	.	.	.	.	4f	.
.	.	.	.	.	.	2e	.
1D	.	1F	re-	1A	-tu	1d	-tu
=10	=10	=10	=10	=10	=10	=10	=10
1GG	-ga-	0G	-ga-	1B	re-	2r	.
.	.	.	.	.	.	2dd	re-
2.C	-li,	.	.	[1c	-ga-	2.ee	-ga-
4D	.	.	.	.	.	4dd	.
=11	=11	=11	=11	=11	=11	=11	=11
2E	.	1G	-li,	1c]	.	4cc	.
.	.	.	.	.	.	4b	.
2C	nam	.	.	.	.	2cc	.
1F	pro-	1r	.	1c	-li,	1a	.
=12	=12	=12	=12	=12	=12	=12	=12
2.E	-ces-	1G	nam	1r	.	4b	.
.	.	.	.	.	.	4a	.
.	.	.	.	.	.	4g	.
4D	.	.	.	.	.	4f	.
4C	.	1G	pro-	1c	nam	4e	.
4BB	.	.	.	.	.	4d	.
2C	-sit	.	.	.	.	[2g	.
=13	=13	=13	=13	=13	=13	=13	=13
1AA	ho-	1A	-ces-	1c	pro-	2g]	.
.	.	.	.	.	.	2f#i	.
1GG	.	1B	-sit	1d	-ces-	[1g	-li,
=14	=14	=14	=14	=14	=14	=14	=14
1C	-di-	1c	ho-	1e	-sit	1g]	.
1D	.	1A	-di-	1f	ho-	1r	.
=15	=15	=15	=15	=15	=15	=15	=15
1GG	-e	1G	-e	1d	-di-	2r	.
.	.	.	.	.	.	2.g	nam
1C	.	2r	.	1c	-e	.	.
.	.	.	.	.	.	4f	.
.	.	2G	de	.	.	4e	.
.	.	.	.	.	.	4d	.
=16	=16	=16	=16	=16	=16	=16	=16
1r	.	1A	ven-	2r	.	2c	.
.	.	.	.	2c	de	1cc	pro-
2r	.	1G	-tre	1d	ven-	.	.
2GG	de	.	.	.	.	2b	.
=17	=17	=17	=17	=17	=17	=17	=17
2C	ven-	1E	vir-	1c	-tre	4cc	-ces-
.	.	.	.	.	.	4b	.
2C	-tre	.	.	.	.	4a	.
.	.	.	.	.	.	4g	.
2D	vir-	1F	-gi-	1A	vir-	2.f	-sit
2D	-gi-	.	.	.	.	.	.
.	.	.	.	.	.	4e	.
=18	=18	=18	=18	=18	=18	=18	=18
1GG	-na-	0G	-na-	1B	-gi-	2d	ho-
.	.	.	.	.	.	2d	-di-
[1C	.	.	.	[1c	-na-	2c	-e
.	.	.	.	.	.	2cc	de
=19	=19	=19	=19	=19	=19	=19	=19
2C]	.	1G	-li	1c]	.	2.cc	ven-
4D	.	.	.	.	.	.	.
4E	.	.	.	.	.	4b	.
2F	.	1r	.	1c	-li	2a	-tre
2E	.	.	.	.	.	[2g	vir-
=20	=20	=20	=20	=20	=20	=20	=20
1D	-li	1d	pu-	1r	.	2g]	.
.	.	.	.	.	.	2f	-gi-
2.G	pu-	1d	-er	1g	pu-	2g	-na-
.	.	.	.	.	.	[2b	.
4F	.	.	.	.	.	.	.
=21	=21	=21	=21	=21	=21	=21	=21
2E	-er	1e	ad-	1g	-er	2b]	.
2C	ad-	.	.	.	.	2cc	.
2F	.	1d	-mi-	1a	ad-	[1dd	-li
2D	-mi-	.	.	.	.	.	.
=22	=22	=22	=22	=22	=22	=22	=22
1G	-ra-	1B	-ra-	1g	-mi-	1dd]	.
2C	-bi-	1c	-bi-	1e	-ra-	1r	.
2E	.	.	.	.	.	.	.
=23	=23	=23	=23	=23	=23	=23	=23
1D	-lis,	1d	-lis,	1f	-bi-	2r	.
.	.	.	.	.	.	2a	pu-
2r	.	1r	.	1g	-lis,	2b	.
2E	to-	.	.	.	.	2g	.
=24	=24	=24	=24	=24	=24	=24	=24
2F	.	1d	to-	1r	.	2a	.
2.G	-tus	.	.	.	.	2.b	.
.	.	1d	-tus	1g	to-	.	.
4F	.	.	.	.	.	4a	.
2G	.	.	.	.	.	2b	.
=25	=25	=25	=25	=25	=25	=25	=25
2E	.	1e	de-	1g	-tus	1cc	-er
2C	.	.	.	.	.	.	.
2F	de-	1d	-le-	1a	de-	2r	.
2D	.	.	.	.	.	2f	ad-
=26	=26	=26	=26	=26	=26	=26	=26
2E	-le-	2B	-cta-	1g	-le-	2e	-mi-
1C	-cta-	2c	.	.	.	1g	-ra-
.	.	1A	-bi-	2e	-cta-	.	.
2D	.	.	.	2f	.	2f	.
=27	=27	=27	=27	=27	=27	=27	=27
2BB	.	1G	-lis	1d	-bi-	2g	.
2GG	-bi-	.	.	.	.	2b	.
1AA	-lis	1r	.	1c	-lis	1cc	.
=28	=28	=28	=28	=28	=28	=28	=28
2r	.	1E	in	1r	.	2b	-bi-
2AA	in	.	.	.	.	2.a	.
2.D	hu-	1F	hu-	1A	in	.	.
.	.	.	.	.	.	4g	.
.	.	.	.	.	.	4f	.
4C	.	.	.	.	.	4e	.
=29	=29	=29	=29	=29	=29	=29	=29
2BB	-ma-	1G	-ma-	1B	hu-	1d	.
2GG	-ni-	.	.	.	.	.	.
1C	-ta-	1E	-ni-	1c	-ma-	2e	-lis,
.	.	.	.	.	.	[2g	to-
=30	=30	=30	=30	=30	=30	=30	=30
1D	-te,	0D	-ta-	1A	-ni-	2g]	.
.	.	.	.	.	.	2f#i	.
2.GG	qui	.	.	[1G	-ta-	2g	-tus
.	.	.	.	.	.	[2g	de-
4AA	.	.	.	.	.	.	.
=31	=31	=31	=31	=31	=31	=31	=31
2BB	.	1D	-te,	1G]	.	4g]	.
.	.	.	.	.	.	4a	.
2GG	in-	.	.	.	.	2b	-le-
2.C	-e-	1r	.	1G	-te,	2g	.
.	.	.	.	.	.	[2cc	-cta-
4D	-sti-	.	.	.	.	.	.
=32	=32	=32	=32	=32	=32	=32	=32
2E	-ma-	1G	qui	1r	.	4cc]	.
.	.	.	.	.	.	4dd	.
2.C	.	.	.	.	.	2ee	-bi-
.	.	1G	in-	1c	qui	1cc	-lis
4D	.	.	.	.	.	.	.
2E	.	.	.	.	.	.	.
=33	=33	=33	=33	=33	=33	=33	=33
2.F	.	1A	-e-	1c	in-	0r	.
4E	.	.	.	.	.	.	.
2D	.	1B	-sti-	1d	-e-	.	.
2D	-bi-	.	.	.	.	.	.
=34	=34	=34	=34	=34	=34	=34	=34
1C	-lis	1c	-ma-	1e	-sti-	2r	.
.	.	.	.	.	.	2g	hu-
1F	est	1A	-bi-	1f	-ma-	2a	-ma-
.	.	.	.	.	.	[2cc	-ni-
=35	=35	=35	=35	=35	=35	=35	=35
1G	.	0G	-lis	1d	-bi-	2cc]	.
.	.	.	.	.	.	2b	-ta-
1C	et	.	.	[1c	-lis	1cc	-te
=36	=36	=36	=36	=36	=36	=36	=36
0r	.	1A	est	1c]	.	2r	.
.	.	.	.	.	.	1cc	qui
.	.	1G	et	1d	est	.	.
.	.	.	.	.	.	2b	in-
=37	=37	=37	=37	=37	=37	=37	=37
2r	.	1E	in-	1c	et	2cc	-e-
2C	in-	.	.	.	.	2ee	-sti-
1D	-ef-	1F	-ef-	1A	in-	2.dd	-ma-
.	.	.	.	.	.	4cc	.
=38	=38	=38	=38	=38	=38	=38	=38
1GG	-fa-	1G	-fa-	1B	-ef-	4b	.
.	.	.	.	.	.	4a	.
.	.	.	.	.	.	1dd	.
1AA	.	1E	-bi-	1c	-fa-	.	.
.	.	.	.	.	.	2cc	-bi-
=39	=39	=39	=39	=39	=39	=39	=39
1D	-bi-	0D	-lis	1A	-bi-	2dd	-lis
.	.	.	.	.	.	2a	est
1GG	.	.	.	[1G	-lis	4b	et
.	.	.	.	.	.	4a	.
.	.	.	.	.	.	4g	.
.	.	.	.	.	.	4f	.
=40	=40	=40	=40	=40	=40	=40	=40
1C	-lis	1E	in	1G]	.	4e	.
.	.	.	.	.	.	4d	.
.	.	.	.	.	.	1g	in-
1r	.	1D	di-	1A	in	.	.
.	.	.	.	.	.	2f	-ef-
=41	=41	=41	=41	=41	=41	=41	=41
0r	.	1E	-vi-	1G	di-	2g	-fa-
.	.	.	.	.	.	2b	.
.	.	1F	-ni-	1A	-vi-	1a	-bi-
=42	=42	=42	=42	=42	=42	=42	=42
2r	.	0G	-ta-	1B	-ni-	1d	-lis
2GG	in	.	.	.	.	.	.
2.C	di-	.	.	[1c	-ta-	2r	.
.	.	.	.	.	.	[2e	in
4D	.	.	.	.	.	.	.
=43	=43	=43	=43	=43	=43	=43	=43
2E	-vi-	1G	-te.	1c]	.	4e]	.
.	.	.	.	.	.	4f	.
2C	-ni-	.	.	.	.	2g	.
2F	-ta-	2r	.	1c	-te.	2a	di-
2E	.	2G	.	.	.	2g	-vi-
=44	=44	=44	=44	=44	=44	=44	=44
2F	.	1A	.	2r	.	2c	-ni-
2C	.	.	.	2c	.	1cc	-ta-
1G	.	[1Gl	.	1d	.	.	.
.	.	.	.	.	.	2b	.
=45	=45	=45	=45	=45	=45	=45	=45
00Cl	-te.	00G]	.	00cl	.	00ccl	-te.
==	==	==	==	==	==	==	==
*-	*-	*-	*-	*-	*-	*-	*-
!!!system-decoration: [*]
!!!RDF**kern: i = editorial accidental
!!!RDF**kern: l = terminal long
!!!PTL: <i> New Senfl Edition: Motets for Four Voices (A-I) </i>
!!!PPR: Hollitzer Verlag
!!!PC#: Denkmäler der Tonkunst in Österreich 163.1
!!!PDT: 2021
!!!PED: Scott Lee Edwards, Stefan Gasch, and Sonja Tröster
!!!YEC: Copyright 2021 Denkmäler der Tonkunst in Österreich
!!!YEM: CC-BY-NC 4.0 (https://creativecommons.org/licenses/by-nc/4.0/legalcode)
!!!EED: Benjamin Ory
!!!EEV: 2023/11/13
!!!verovio: header true
!!!header-left: @{PTL}\n@{PED}, eds.\n@{PC#} (@{PDT})&nbsp;\n
!!!header-right:
!!!header-center:
